X:1
T: Flannel Jacket
P:Roche version
R:Reel
Q: 232
K:G
M:4/4
L:1/8
|:DG G2 BG G2|A2 cA d2 cA|DG G2 BG G2|Ad cA BG AF|
D2 GG BG G2|A2 cA d2 cA|GA Bc d2 g2|fd cA BG G2:|
|:g2 gf d2 cA|A2 cA d2 d2|g2 gf d2 cA|AG FG AG G2|
g2 gf d2 cA|A2 cA d2 cA|GA Bc d2 g2|fd cA BG G2:|
